docs/static/logos/github.svg

<svg width="17" height="16" viewBox="0 0 17 16" fill="none" xmlns="http://www.w3.org/2000/svg">
<path d="M8.75 0C4.19409 0 0.5 3.675 0.5 8.20357C0.5 11.8286 2.86451 14.9 6.14241 15.9857C6.19397 15.9964 6.23817 16 6.28237 16C6.58806 16 6.70592 15.7821 6.70592 15.5929C6.70592 15.3964 6.69855 14.8821 6.69487 14.1964C6.38549 14.2643 6.10926 14.2929 5.8625 14.2929C4.27511 14.2929 3.91417 13.0964 3.91417 13.0964C3.5385 12.15 2.9971 11.8964 2.9971 11.8964C2.27891 11.4071 2.99342 11.3929 3.04866 11.3929H3.05234C3.88103 11.4643 4.31563 12.2429 4.31563 12.2429C4.72813 12.9429 5.28058 13.1393 5.77411 13.1393C6.16083 13.1393 6.51071 13.0179 6.71696 12.925C6.79063 12.3964 7.00424 12.0357 7.23996 11.8286C5.40949 11.6214 3.48326 10.9179 3.48326 7.775C3.48326 6.87857 3.80368 6.14643 4.33036 5.575C4.24565 5.36786 3.96205 4.53214 4.41138 3.40357C4.41138 3.40357 4.47031 3.38571 4.59554 3.38571C4.89386 3.38571 5.56786 3.49643 6.68013 4.24643C7.3394 4.06429 8.04286 3.975 8.74632 3.97143C9.44609 3.975 10.1532 4.06429 10.8125 4.24643C11.9248 3.49643 12.5988 3.38571 12.8971 3.38571C13.0223 3.38571 13.0813 3.40357 13.0813 3.40357C13.5306 4.53214 13.247 5.36786 13.1623 5.575C13.689 6.15 14.0094 6.88214 14.0094 7.775C14.0094 10.925 12.0795 11.6179 10.2416 11.8214C10.5363 12.075 10.8015 12.575 10.8015 13.3393C10.8015 14.4357 10.7904 15.3214 10.7904 15.5893C10.7904 15.7821 10.9046 16 11.2103 16C11.2545 16 11.306 15.9964 11.3576 15.9857C14.6392 14.9 17 11.825 17 8.20357C17 3.675 13.3059 0 8.75 0Z" fill="#92A0B3"/>
</svg>

<svg xmlns="http://www.w3.org/2000/svg" width="17" height="16" fill="none" viewBox="0 0 17 16"><path fill="#92A0B3" d="M8.75 0C4.194 0 .5 3.675.5 8.204c0 3.625 2.365 6.696 5.642 7.782a.72.72 0 0 0 .14.014c.306 0 .424-.218.424-.407 0-.197-.007-.71-.011-1.397-.31.068-.586.097-.833.097-1.587 0-1.948-1.197-1.948-1.197-.376-.946-.917-1.2-.917-1.2-.718-.489-.004-.503.052-.503h.003c.829.071 1.264.85 1.264.85.412.7.965.896 1.458.896.387 0 .737-.121.943-.214.074-.529.287-.89.523-1.096-1.83-.208-3.757-.911-3.757-4.054 0-.896.32-1.629.847-2.2-.084-.207-.368-1.043.081-2.171 0 0 .06-.018.185-.018.298 0 .972.11 2.084.86a7.955 7.955 0 0 1 2.066-.275c.7.004 1.407.093 2.066.275 1.113-.75 1.787-.86 2.085-.86.125 0 .184.018.184.018.45 1.128.166 1.964.081 2.171.527.575.847 1.307.847 2.2 0 3.15-1.93 3.843-3.767 4.046.294.254.56.754.56 1.518 0 1.097-.012 1.982-.012 2.25 0 .193.115.411.42.411a.735.735 0 0 0 .148-.014C14.639 14.9 17 11.825 17 8.204 17 3.675 13.306 0 8.75 0Z"/></svg>
